assets/icons/restart.svg

<svg version="1.1" viewBox="0 0 24 24" xmlns="http://www.w3.org/2000/svg">
 <path d="m12 4c2.1 0 4.1 0.8 5.6 2.3 3.1 3.1 3.1 8.2 0 11.3-1.8 1.9-4.3 2.6-6.7 2.3l0.5-2c1.7 0.2 3.5-0.4 4.8-1.7 2.3-2.3 2.3-6.1 0-8.5-1.1-1.1-2.7-1.7-4.2-1.7v4.6l-5-5 5-5v3.4m-5.7 13.6c-2.6-2.6-3-6.6-1.2-9.7l1.5 1.5c-1.1 2.2-0.7 5 1.2 6.8 0.5 0.5 1.1 0.9 1.8 1.2l-0.6 2c-1-0.4-1.9-1-2.7-1.8z" fill="#fff"/>
</svg>

<?xml version="1.0" encoding="UTF-8" standalone="no"?>
<svg
   version="1.1"
   width="24"
   height="24"
   viewBox="0 0 24 24"
   id="svg4"
   sodipodi:docname="restart.svg"
   inkscape:version="1.1.1 (3bf5ae0d25, 2021-09-20)"
   xmlns:inkscape="http://www.inkscape.org/namespaces/inkscape"
   xmlns:sodipodi="http://sodipodi.sourceforge.net/DTD/sodipodi-0.dtd"
   xmlns="http://www.w3.org/2000/svg"
   xmlns:svg="http://www.w3.org/2000/svg">
  <defs
     id="defs8" />
  <sodipodi:namedview
     id="namedview6"
     pagecolor="#505050"
     bordercolor="#eeeeee"
     borderopacity="1"
     inkscape:pageshadow="0"
     inkscape:pageopacity="0"
     inkscape:pagecheckerboard="0"
     showgrid="false"
     inkscape:zoom="31.041667"
     inkscape:cx="12"
     inkscape:cy="11.983893"
     inkscape:window-width="1920"
     inkscape:window-height="1019"
     inkscape:window-x="0"
     inkscape:window-y="30"
     inkscape:window-maximized="1"
     inkscape:current-layer="svg4" />
  <path
     d="M12,4C14.1,4 16.1,4.8 17.6,6.3C20.7,9.4 20.7,14.5 17.6,17.6C15.8,19.5 13.3,20.2 10.9,19.9L11.4,17.9C13.1,18.1 14.9,17.5 16.2,16.2C18.5,13.9 18.5,10.1 16.2,7.7C15.1,6.6 13.5,6 12,6V10.6L7,5.6L12,0.6V4M6.3,17.6C3.7,15 3.3,11 5.1,7.9L6.6,9.4C5.5,11.6 5.9,14.4 7.8,16.2C8.3,16.7 8.9,17.1 9.6,17.4L9,19.4C8,19 7.1,18.4 6.3,17.6Z"
     id="path2"
     style="fill:#ffffff" />
</svg>
